assets/images/facebook-icon.svg

<svg width="16" height="16" viewBox="0 0 16 16" fill="none" xmlns="http://www.w3.org/2000/svg">
<path d="M9.44446 6.38867V4.38867C9.44446 3.83667 9.89246 3.38867 10.4445 3.38867H11.4445V0.888672H9.44446C7.78746 0.888672 6.44446 2.23167 6.44446 3.88867V6.38867H4.44446V8.88867H6.44446V15.9998H9.44446V8.88867H11.4445L12.4445 6.38867H9.44446Z" fill="white"/>
</svg>

<svg width="16" height="16" fill="none" xmlns="http://www.w3.org/2000/svg"><path d="M9.444 6.389v-2a1 1 0 011-1h1v-2.5h-2a3 3 0 00-3 3v2.5h-2v2.5h2v7.11h3V8.89h2l1-2.5h-3z" fill="#fff"/></svg>
